X:1
T:Es ist an der Zeit (No Man's Land)
T:Es ist an der Zeit
C:Eric Bogle
Z:Hannes Wader
L:1/8
M:3/4
K:G
V:1 treble nm="Piano" snm="Pno."
V:1
 D2 |"G" D2 D2 D2 | G2 G2 G2 |"C" E2 E2 C2 |"Am" A,4 E2 |"D" F2 F2 G2 | A2 B2 A2 | %7
w: Weit|in der Cham-|pag- ne im|Mit- som- mer-|grün Dort|wo zwi- schen|Grab- kreu- zen|
w: Hast|Du toter Sol-|dat mal ein|Mäd- chen ge-|liebt, Sicher|nicht, denn nur|dort wo es|
w: Sol-|dat gingst Du|gläu- big und|gern' in den|Tod? Oder|hast Du ver-|zwei- felt, ver-|
w: Es|blieb nur das|Kreuz * als|ein- zi- ge|Spur *|Von Dei- nem|Le- ben doch|
"G" G2 B,2"C" E2 |"G" D4 z D |"G" D2 D3 D | G2 G2 G2 |"C" E2 E2 C2 |"Am" A,4 G2 |"D" F2 F2 G2 | %14
w: Mohn- blu- men|blühn. Da|flüs- tern die|Grä- ser und|wie- gen sich|leicht, im|Wind der sanft|
w: Frie- * den|gibt, kön-|nen Zärt- lich|keit und Ver-|trau- en ge-|deihn'. Warst|Sol- dat um|
w: bit- tert, ver-|roht, Deinen|wirk- lich- chen|Feind nicht er-|kannt bis zum|Schluß? Ich|hof- fe es|
w: hör mei- nen|Schwur: Für|Frie- den zu|kämp- fen und|wach- sam zu|sein Fälltdie|Mensch- heit noch|
 A4 BA |"G" G2 A2"C" F2 |"G" G4 d2 | d2 d2 d2 | d2 c2 B2 |"Am" A2 A3 B | c4 cc |"D" c2 c2 c2 | %22
w: ü- ber das|Grä- ber- feld|streicht. Auf|Dei- nem Kreuz|fin- de ich|to- ter Sol-|dat, Dei- nen|Na- men nicht|
w: sterben, nicht um|jung * zu|sein. Vielleicht|dach- test Du|Dir * ich|fal- le schon|bald, neh- me|mir mein Ver|
w: traf Dich ein|sau- ber- rer|Schuß!~ Oder|hat ein Ge-|schoß Dir die|Glie- der zer-|fetzt? Hast- Du|nach Dei- ner|
w: ein- mal auf|Lü- gen her-|ein. Dann|kann es ge-|schehn', daß bald|nie- mand mehr|lebt, der die|Mil- liard- den|
 c2 BA- A2 |"G" G2 A2 B2 |"D" A4 z2 | z4 d2 |"G" d2 d2 dd- | d c3 BB |"Am" A2 A2 GE- | E4 GG | %30
w: nur Zif- fern *|und je- mand|hat|Die|Zahl Neun zehn hun-|* * dert *|sech- zehn ge- malt|* Und Du|
w: gnü- gen wie es|kommt mit Ge-|walt.~~|Dazu|warst Du ent- schlos-|* sen hast Dich|a- ber ber dann,|* selbst *|
w: Mut- ter ge *|schrien bis zu|letzt.|Bist|Du auf Bein- stümp-|* fen- wei- *|ter * ge- rannt?|* Und Dein|
w: * * von *|To ten be|gräbt.|Doch|längst fin- den sich|* mehr und mehr|Men- schen be- reit|* Die- sen|
"D" F2 F2 G2 | A4 BA |"G" G3 A"D" F2 |"G" G4 z2 || z2"^REFR" B2 B2 |"D" A3 A2 A | A c3 c2 | %37
w: warst nicht mal|neun- zehn *|Jah- re *|alt.|Ja auch|Dich ha- ben|sie schon ge-|
w: vor Dir ge-|schämt und es|doch nicht ge-|tan.||||
w: Grab birgt es|mehr als ein|Bein ei- ne|Hand.||||
w: Krieg zu ver|hin- dern es|ist an der|Zeit.||||
"C" c4 dc |"G" BA G2 GA |"D" A A3 A2 | A4 cc |"C" cd- d c3 |"G" B4 z2 | z2 B2 B2 |"C" c2 c2 c2 | %45
w: nau- so be-|lo * gen so wie|sie es mit|uns heu- te|im- mer * noch|tun.|Und Du|hast Ih- nen|
w: ||||||||
w: ||||||||
w: ||||||||
 c d3 c2 |"D" B2 A2 z2 | z4 BA |"G" G4 BB |"C" c3 B c2 |"D" A3 G F2 |"G" G6 | z6 | z6 | z6 | z6 | %56
w: al- les ge-|ge- ben|Dei- ne|Kraft Dei- ne|Ju- gend Dein|Le- * *|ben.|||||
w: |||||||||||
w: |||||||||||
w: |||||||||||
 z6 | z4 DD |] %58
w: |Hast Du|
w: ||
w: ||
w: ||

